X:14
M:4/4
L:1/4
K:C
G | G G A G | c d c2 | B d e d | B A !fermata!G G | c B d A | G E !fermata!D D | A A A !sintro!d | c A (G/A/ B | !fermata!A) G G G | !fermata!G z2 !eintro!|]
